polaris-icons/icons/new-icons/NoteMajor.svg

<svg width="20" height="20" viewBox="0 0 20 20" fill="none" xmlns="http://www.w3.org/2000/svg">
<path d="M6.54999 7.2498C6.54999 6.86321 6.86339 6.5498 7.24999 6.5498H12.75C13.1366 6.5498 13.45 6.86321 13.45 7.2498C13.45 7.6364 13.1366 7.9498 12.75 7.9498H7.24999C6.86339 7.9498 6.54999 7.6364 6.54999 7.2498Z" fill="#4A4A4A"/>
<path d="M6.99999 9.0498C6.61339 9.0498 6.29999 9.36321 6.29999 9.7498C6.29999 10.1364 6.61339 10.4498 6.99999 10.4498H9.24999C9.63659 10.4498 9.94999 10.1364 9.94999 9.7498C9.94999 9.36321 9.63659 9.0498 9.24999 9.0498H6.99999Z" fill="#4A4A4A"/>
<path fill-rule="evenodd" clip-rule="evenodd" d="M3.5 6.25C3.5 4.73122 4.73122 3.5 6.25 3.5H13.75C15.2688 3.5 16.5 4.73122 16.5 6.25V11.75C16.5 11.9489 16.421 12.1397 16.2803 12.2803L12.2803 16.2803C12.1397 16.421 11.9489 16.5 11.75 16.5H6.25C4.73122 16.5 3.5 15.2688 3.5 13.75V6.25ZM6.25 5C5.55964 5 5 5.55964 5 6.25V13.75C5 14.4404 5.55964 15 6.25 15H11V12.75C11 11.7835 11.7835 11 12.75 11H15V6.25C15 5.55964 14.4404 5 13.75 5H6.25ZM13.9393 12.5H12.75C12.6119 12.5 12.5 12.6119 12.5 12.75V13.9393L13.9393 12.5Z" fill="#4A4A4A"/>
</svg>

<svg viewBox="0 0 20 20" xmlns="http://www.w3.org/2000/svg"><path d="M6.55 7.25a.7.7 0 0 1 .7-.7h5.5a.7.7 0 0 1 0 1.4h-5.5a.7.7 0 0 1-.7-.7Z" fill="#5C5F62"/><path d="M7 9.05a.7.7 0 0 0 0 1.4h2.25a.7.7 0 1 0 0-1.4h-2.25Z" fill="#5C5F62"/><path fill-rule="evenodd" d="M3.5 6.25a2.75 2.75 0 0 1 2.75-2.75h7.5a2.75 2.75 0 0 1 2.75 2.75v5.5a.75.75 0 0 1-.22.53l-4 4a.75.75 0 0 1-.53.22h-5.5a2.75 2.75 0 0 1-2.75-2.75v-7.5Zm2.75-1.25c-.69 0-1.25.56-1.25 1.25v7.5c0 .69.56 1.25 1.25 1.25h4.75v-2.25c0-.966.784-1.75 1.75-1.75h2.25v-4.75c0-.69-.56-1.25-1.25-1.25h-7.5Zm7.69 7.5h-1.19a.25.25 0 0 0-.25.25v1.19l1.44-1.44Z" fill="#5C5F62"/></svg>
